Bryan-Lavender/InterpretableModelExploration/output_folder_tmp/acrobotnormTrue/X2.csv
cos_joint1,sin_joint1,cos_joint2,sin_joint2,ang_vel_joint1,ang_vel_joint2
0.9852099,0.17135203,0.97708255,-0.21286078,-0.07096417,0.20101355
0.992848,0.11938534,0.9365271,-0.35059524,0.01035795,-0.47110248
0.9997196,0.023679415,0.96155393,-0.27461615,-0.07077677,0.5627104
0.9998754,-0.015783716,0.9309172,-0.36523023,0.17480364,-0.28812578
0.99841607,0.056261197,0.8788684,-0.4770643,0.11150766,-0.29080296
0.9991561,0.04107398,0.9986939,-0.051093508,0.096758924,0.14957795
0.9995533,-0.029885096,0.9600013,-0.27999568,0.1211141,0.09194084
0.9999109,0.013348945,0.96422946,-0.26506898,-0.2524645,0.015319296
0.9878641,0.15532069,0.9493304,-0.31427985,-0.056221172,-0.31081295
0.9927765,0.119978234,0.98655117,-0.16345258,-0.14169578,0.50626045
0.99262655,0.12121294,0.94180363,-0.33616346,-0.2242361,-0.063417435
0.998328,0.05780344,0.9781556,-0.20787397,-0.076813005,0.5834991
0.9990084,0.044521928,0.9592888,-0.28242713,0.26741904,-0.023480095
0.99532145,0.09661904,0.8842602,-0.46699455,0.002854779,-0.3576255
0.9994463,0.033273526,0.90597016,-0.42334157,0.1223567,-0.4155313
0.9898845,0.14187577,0.9460213,-0.32410437,-0.012625907,-0.41041002
0.99788135,0.06506023,0.89395285,-0.448161,0.22569464,-0.11280696
0.99777746,0.0666342,0.99593556,-0.090068616,-0.07771991,0.4344566
0.9957765,0.09181048,0.99679136,-0.080043964,0.19490495,-0.21733542
0.98663944,0.16291906,0.9559439,-0.2935494,0.050430197,0.28277013
0.9937359,0.11175397,0.9740543,-0.2263146,0.090419546,-0.54810065
0.9965388,0.08312877,0.9050125,-0.425385,0.058191046,-0.48618335
0.9988894,0.047116805,0.9999961,-0.0027907358,-0.05581359,-0.02540787
0.99912614,0.04179698,0.88944435,-0.45704353,0.15829828,-0.24928898
0.9926817,0.12076044,0.9784738,-0.20637119,-0.120948866,0.55836076
0.9981964,0.06003239,0.9373784,-0.34831277,-0.27175117,0.0560495
0.9850571,0.17222802,0.975148,-0.22155435,-0.050531223,0.22288102
0.9966805,0.08141227,0.9013989,-0.4329896,0.2277043,-0.03410257
0.99752957,0.070247635,0.8645429,-0.502559,-0.12468617,0.15615785
0.99995935,-0.009018065,0.94717187,-0.32072642,-0.08870741,0.46477437
0.99586654,0.09082851,0.99575007,-0.09209649,-0.20623566,0.16623154
0.9884866,0.15130852,0.984509,-0.17533414,-0.15565939,0.23746958
0.99594474,0.089966856,0.8616064,-0.50757694,-0.068812996,-0.102193296
0.9912234,0.13219754,0.9641774,-0.2652582,-0.23821525,0.011126621
0.9973874,0.072238125,0.8650754,-0.5016418,0.06396566,-0.2136723
0.99989074,0.01478023,0.9198307,-0.39231563,-0.13800155,0.45675692
0.99910235,-0.04236084,0.947976,-0.31834182,-0.079245165,0.12554596
0.9999108,0.013359323,0.94818825,-0.31770912,0.07704052,-0.5112519
0.98697376,0.16088142,0.9732592,-0.22970968,-0.06850474,0.36714894
0.9971514,0.075426176,0.88070446,-0.47366613,0.05599893,-0.35998514
0.9968379,0.07946162,0.99661535,-0.08220623,0.2075861,-0.12978856
0.99009556,0.14039506,0.9856221,-0.16896476,-0.1436343,0.39790684
0.99522346,0.09762328,0.89537674,-0.44530943,-0.14841075,-0.119673975
0.9885927,0.15061392,0.96373343,-0.26686668,0.1712179,0.06378652
0.99089754,0.13461816,0.98635846,-0.16461158,0.21929061,-0.1938946
0.98353106,0.18073905,0.9687705,-0.247959,-0.021719573,-0.16411754
0.99999976,-0.0006616282,0.9842564,-0.17674676,0.050692838,0.37465113
0.9963011,0.08593098,0.9068879,-0.42137203,-0.03898402,0.45943555
0.9970934,0.07618894,0.8675864,-0.49728656,-0.044322796,0.2506539
0.99672544,0.08086021,0.9699381,-0.24335165,-0.08490381,0.59347373
0.99612755,0.08791974,0.9543518,-0.29868487,0.26614824,-0.009145805
0.99919546,-0.040106088,0.95347404,-0.30147502,0.043736108,-0.28187528
0.99999976,0.00068255863,0.9240473,-0.38227823,-0.19332993,0.22330144
0.999222,-0.039438713,0.9503464,-0.3111939,0.11829928,-0.061829135
0.99918914,-0.040261794,0.9631985,-0.26879114,-0.06846378,-0.1784916
0.99886584,0.04761275,0.9500881,-0.31198183,-0.08542251,0.5876977
0.9989663,0.0454569,0.9959152,-0.09029368,-0.1714325,-0.072585575
0.99700177,0.077378914,0.9947687,-0.10215345,-0.21372193,0.07932715
0.9944312,0.10538794,0.8929157,-0.45022383,0.1707101,0.09628585
0.99608624,0.08838693,0.9962077,-0.087007,0.12923458,-0.40177187
0.99582195,0.09131587,0.8819082,-0.47142118,0.0194206,0.28910446
0.99548024,0.09496891,0.9355075,-0.35330683,-0.0504203,0.5379942
0.99785054,0.065530606,0.9938954,-0.11032616,-0.07703542,0.47615904
0.99067336,0.13625804,0.92943,-0.36899847,-0.10430203,-0.27164844
0.9936139,0.11283336,0.9572735,-0.28918424,-0.25862947,0.005750661
0.9993889,-0.03495559,0.94327706,-0.3320067,0.1308941,-0.20581628
0.9995615,0.029610766,0.9944157,-0.105533846,0.017301382,0.38901535
0.9924373,0.12275237,0.96088725,-0.27693987,-0.24937509,0.0065513737
0.9965975,0.08242158,0.98720634,-0.15944777,-0.24010901,0.042934086
0.9873501,0.15855534,0.9501375,-0.3118313,0.06917372,0.2814461
0.9947195,0.10263092,0.99241877,-0.122902505,0.23352185,-0.17054577
0.9997817,0.02089129,0.95455784,-0.29802582,-0.0794291,0.55572796
0.9982587,0.05898759,0.9997303,-0.023223111,0.1003636,-0.0655574
0.9876526,0.15666007,0.9774415,-0.2112065,0.09587552,-0.3780547
0.996147,0.087699816,0.9047614,-0.42591888,-0.20279618,-0.029279975
0.98422295,0.17693268,0.973493,-0.22871695,0.010431286,0.11001254
0.99147886,0.1302679,0.91099465,-0.4124182,0.075659744,0.32020468
0.99047863,0.13766642,0.9503444,-0.31120026,-0.042644307,0.506473
0.9886902,0.14997247,0.9445765,-0.32829136,0.019337177,0.3955717
0.99845636,0.055541903,0.9999237,-0.012353946,0.03777367,-0.023433289
0.9991375,-0.04152417,0.952226,-0.30539432,-0.006475654,0.17154713
0.99920326,0.039909802,0.99947923,-0.03226898,-0.04878729,-0.19734696
0.9981646,0.060559865,0.9201742,-0.39150923,0.08823779,-0.5363188
0.994112,0.108357094,0.99402004,-0.109197624,0.15864012,-0.38953888
0.99720234,0.074749485,0.9986417,-0.05210325,-0.1724081,0.16777284
0.98875326,0.14955589,0.9430883,-0.33254245,-0.07364182,-0.30266008
0.99671096,0.081038594,0.9225031,-0.3859896,-0.24526647,0.012904832
0.9970765,0.07640985,0.85904354,-0.5119025,-0.052508675,0.15213875
0.9999962,0.0027629493,0.9704747,-0.24120289,-0.03245654,0.4957957
0.99630755,0.085855715,0.858359,-0.51304954,-0.067302965,-0.051921066
0.9907613,0.13561732,0.98410237,-0.17760204,0.12793854,-0.43959355
0.99894077,0.046014786,0.99455726,-0.10419157,-0.035396222,0.44661546
0.987733,0.15615222,0.9592159,-0.28267446,-0.16992128,-0.0790569
0.9879369,0.15485694,0.98252434,-0.1861343,0.1335511,-0.33331275
0.9989842,0.04506102,0.9997494,-0.022384573,0.021226896,-0.26526222
0.99708265,0.07632942,0.9549763,-0.29668197,-0.078961454,0.59473884
0.9964864,0.08375419,0.9980969,-0.061665222,0.14160948,-0.3085367
0.99981344,0.01931411,0.91053176,-0.41343915,0.22196184,-0.25895357
0.9961233,0.08796781,0.8745215,-0.48498675,0.020303216,0.24384266
0.9999988,0.0015255057,0.97259873,-0.23249036,0.18356696,0.11176539
0.9913214,0.13146068,0.9307412,-0.36567858,-0.04243899,-0.37911034
0.99262124,0.121256016,0.9151191,-0.40318364,-0.12811197,-0.22219864
0.9999318,0.011676773,0.99050295,-0.13749157,0.14123552,0.21217842
0.9969023,0.07865002,0.88083667,-0.47342026,-0.038820267,0.34253994
0.99738115,0.072324775,0.96300113,-0.26949728,0.09789258,-0.6316622
0.9984091,0.056385327,0.9423979,-0.334494,0.2731825,-0.052594252
0.99835765,0.05728858,0.9997772,-0.02110872,-0.1221834,0.085263915
0.9987036,0.05090309,0.9995048,-0.031467356,0.100200176,0.046522707
0.999955,0.009486758,0.98465437,-0.17451587,-0.14023231,-0.214353
0.9881518,0.15347977,0.94374985,-0.33066034,0.08700278,0.2750149
0.984904,0.17310134,0.97638804,-0.21602398,0.086703405,-0.24648905
0.9981903,0.060134675,0.9833311,-0.18182391,-0.07631516,0.56627524
0.999065,0.04323379,0.9334059,-0.35882238,-0.09516907,0.5550734
0.9978663,0.06529132,0.9996314,-0.0271496,-0.121909596,0.262311
0.99773157,0.0673179,0.9994067,-0.034442063,0.09585006,-0.23637788
0.99172217,0.12840241,0.98438,-0.17605692,-0.2125132,0.11575591
0.9992021,0.039939865,0.9019848,-0.4317678,-0.12669969,0.43966773
0.98717296,0.15965436,0.9795915,-0.20099877,-0.10451201,0.32338816
0.9998807,-0.015446556,0.96600586,-0.25852016,0.15639825,0.107391715
0.9998105,0.019466389,0.99270195,-0.12059354,0.14826134,0.18673138
0.9985582,0.05367903,0.9996766,-0.0254317,-0.12130647,0.027534986
0.9989698,0.04538043,0.9890294,-0.14771858,-0.212591,-0.05779824
0.99746865,0.07110801,0.9183231,-0.39583167,-0.24451725,0.039530866
0.99199754,0.12625726,0.96881676,-0.2477783,0.22634621,-0.003512881
0.9980615,0.06223595,0.98766196,-0.15660088,-0.0762509,0.54248416
0.999357,-0.035854723,0.9574534,-0.2885879,0.10076753,0.08106472
0.9920825,0.1255879,0.9909366,-0.13433072,-0.19442354,0.25272387
0.98731506,0.15877326,0.96403295,-0.26578268,-0.032342467,0.3941228
0.99770826,0.06766285,0.94675803,-0.32194602,0.09106815,-0.6101796
0.99602634,0.08905928,0.8699731,-0.49309912,-0.0010951653,-0.26495856
0.9898806,0.1419028,0.9740036,-0.22653235,0.19601344,-0.023653075
0.9993676,0.03555784,0.9926103,-0.12134587,0.031366922,-0.47944713
0.99087846,0.13475856,0.9220837,-0.38699055,0.13305295,0.22512911
0.99624395,0.08659118,0.97249377,-0.23292886,0.25992665,-0.017708171
0.9960131,0.08920673,0.99729264,-0.0735352,-0.15854229,0.3791729
0.9975043,0.07060577,0.9412504,-0.33770952,-0.2738782,0.039422154
0.9994055,-0.034477074,0.9602445,-0.27916044,-0.1362959,-0.05341852
0.9950044,0.09983083,0.97188765,-0.23544519,-0.27759224,0.056272123
0.9943715,0.10595012,0.9153555,-0.4026466,-0.19556117,-0.09223635
0.9987641,0.04970175,0.9791479,-0.20314857,0.08138992,-0.598303
0.98524183,0.17116812,0.96944374,-0.24531384,-0.009404537,0.25844666
0.9896979,0.14317182,0.93641484,-0.35089487,-0.08973523,-0.28957403
0.9986981,0.051010054,0.9978743,-0.065168045,-0.030920504,0.36013228
0.98556924,0.16927278,0.9656147,-0.2599776,0.0109595535,0.2709212
0.9996744,0.02551843,0.99435735,-0.106082246,-0.032706127,-0.36964613
0.98483986,0.17346613,0.96298397,-0.26955876,-0.06468899,-0.18684141
0.9960264,0.08905855,0.93161154,-0.36345553,0.25505725,-0.0037996958
0.9994407,0.033440318,0.9112348,-0.41188735,0.24244767,-0.18763773
0.9999601,-0.008932292,0.97302014,-0.23072022,-0.04216213,-0.35252428
0.98792064,0.1549607,0.98340976,-0.18139786,-0.1391827,0.26785672
0.99643856,0.08432208,0.9815811,-0.19104604,-0.09271787,0.5654124
0.9973766,0.072387256,0.996197,-0.087129325,0.21217678,-0.08828975
0.9950906,0.098967984,0.89894557,-0.4380603,0.01327515,0.37048426
0.9852885,0.1708994,0.97375846,-0.22758389,0.0918328,0.017081272
0.9995223,-0.030904988,0.94228226,-0.3348195,0.15195844,-0.18428326
0.99588037,0.09067685,0.9895216,-0.14438464,0.10794568,-0.511734
0.99918485,0.040368866,0.99845636,-0.05554159,-0.114694946,-0.13058221
0.99679,0.080060706,0.856278,-0.51651525,0.012719181,0.044211168
0.9990414,0.043775856,0.9094072,-0.4159069,-0.2280195,0.13084441
0.99890137,0.04686268,0.95543313,-0.29520762,-0.2810474,0.049343236
0.9939789,0.10957132,0.9107543,-0.41294864,0.020818867,-0.47353947
0.9921402,0.12513146,0.92997676,-0.36761835,0.19469333,0.11703577
0.99999243,0.0038925218,0.9879192,-0.15496968,0.13260022,0.23290373
0.99274296,0.12025587,0.9731357,-0.23023231,-0.11046088,0.5759031
0.9841102,0.17755876,0.9661663,-0.2579198,-0.04353202,-0.17701364
0.9965418,0.08309281,0.9983949,-0.05663578,-0.16669302,0.27508286
0.9998522,-0.017194612,0.9716003,-0.2366281,0.011013051,0.39564323
0.99681157,0.07979181,0.8550666,-0.5185182,0.009311648,-0.008133553
0.99360806,0.11288512,0.9792865,-0.20247951,0.10204718,-0.53496
0.9979466,0.06405077,0.99116546,-0.13263133,-0.07652023,0.5123293
0.9995835,0.028859535,0.9074716,-0.42011347,-0.20657976,0.19685665
0.99685377,0.07926289,0.8649324,-0.50188833,-0.13457873,0.06053597
0.9988031,-0.0489123,0.95261794,-0.30416948,-0.04321626,-0.003946316
0.98311776,0.18297388,0.9708026,-0.23987979,0.00057575223,-0.14870232
0.9889451,0.14828177,0.95539576,-0.29532856,-0.18608339,-0.08113374
0.9988733,0.04745663,0.97316915,-0.23009092,0.08155824,-0.604518
0.9887726,0.14942843,0.98539937,-0.17025891,0.16988145,-0.27939186
0.9854604,0.16990529,0.96594167,-0.25875995,0.074965514,0.15404588
0.9939292,0.11002162,0.9679799,-0.25102773,0.07902597,-0.5549674
0.9876708,0.1565454,0.95827615,-0.28584412,-0.014599223,0.40010136
0.99876314,0.049721614,0.93379384,-0.35781148,-0.26716197,0.075313374
0.99777573,0.06666019,0.91911125,-0.39399812,-0.0771423,0.52452403
0.99969816,-0.02456746,0.93831474,-0.34578246,-0.14930308,0.1970681
0.99810725,0.061497696,0.91466945,-0.40420267,-0.24133421,0.06836032
0.9989814,0.045123193,0.99995345,-0.009648726,-0.053817626,-0.08541546
0.9999186,0.012761386,0.9892005,-0.1465688,-0.08601595,-0.30766565
0.9996892,0.024928711,0.96928936,-0.24592313,0.23943093,0.027210109
0.99834263,0.05754945,0.95895785,-0.28354865,-0.28486666,0.043606915
0.99981016,-0.019485604,0.9333115,-0.35906768,0.1566686,-0.3152037
0.9970119,0.07724828,0.87804896,-0.47857082,0.13948509,-0.0012924782
0.9954753,0.09502058,0.890115,-0.45573592,0.01709739,0.3315033
0.99945164,0.03311184,0.91246283,-0.40915963,0.114085026,-0.45249435
0.99872977,0.050387442,0.91545266,-0.4024257,0.2556339,-0.11900233
0.9901834,0.13977414,0.9511692,-0.30866998,-0.20063828,-0.079264745
0.9977541,0.066983156,0.9993669,-0.035578687,-0.121104345,0.31976086
0.99583715,0.09115045,0.9270782,-0.37486798,-0.24356201,-0.011083432
0.99208546,0.12556432,0.92266,-0.38561454,-0.05525366,-0.3556849
0.9999923,-0.0039192843,0.9776597,-0.2101941,-0.055097584,-0.34915778
0.999119,0.04196756,0.99868596,-0.051248528,0.029658573,0.2610202
0.98510325,0.17196397,0.9778552,-0.20928246,0.10799684,-0.22536182
0.9957641,0.09194519,0.9260455,-0.37741196,-0.04543894,0.51699084
0.99882454,0.048471954,0.88218594,-0.4709012,-0.16693214,0.28415778
0.99999714,0.0023811636,0.9811633,-0.19317995,-0.12953995,-0.22787108
0.9875986,0.15700004,0.96700114,-0.25477198,0.15280111,0.05704932
0.9995298,-0.030662593,0.96095216,-0.27671456,0.059481174,0.2060976
0.99285257,0.11934722,0.9145132,-0.40455619,-0.066423595,-0.32749793
0.9854991,0.16968068,0.9654416,-0.26061952,-0.13347988,-0.06398619
0.99269974,0.12061203,0.985068,-0.17216566,0.24713878,-0.14189105
0.9976153,0.06901965,0.9990081,-0.04452903,0.09340351,-0.29056004
0.99954975,0.030005751,0.97430086,-0.22525057,-0.05656328,0.5601417
0.99982905,0.018489655,0.9473516,-0.32019532,-0.08916127,0.5438118
0.9999763,0.006890662,0.9758071,-0.21863332,-0.021395562,0.49203882
0.9950695,0.09918032,0.9898519,-0.14210287,-0.230252,0.104340054
0.99996,0.008940293,0.929181,-0.36962506,0.23732166,-0.17509267
0.996276,0.086221114,0.9142048,-0.4052525,0.061672688,-0.52133393
0.9985946,0.052998617,0.99879026,-0.049173277,-0.029260652,0.3097566
0.99979603,-0.020196756,0.9379698,-0.34671694,-0.17064716,0.17671564
0.9998283,0.018529948,0.992048,-0.12586014,-0.09385457,-0.28280726
0.9991818,-0.040444393,0.9500989,-0.31194896,0.065314464,-0.26509455
0.99921083,-0.039720032,0.9472294,-0.32055655,0.08724095,-0.24657872
0.99986255,0.01657881,0.940105,-0.340885,-0.09996444,0.52745175
0.99847275,0.05524668,0.89209867,-0.4518406,-0.18995081,0.12050368
0.99986225,0.016595945,0.94569427,-0.3250575,-0.25536466,0.08391507
0.9999473,-0.010267006,0.94156486,-0.33683172,-0.105473645,0.44776285
0.9986787,0.05138969,0.9998241,-0.018756447,0.03601529,0.09666862
0.999783,0.020831535,0.96870995,-0.24819565,0.053407907,-0.5435494
0.99803424,0.06267075,0.8736786,-0.48650354,-0.105031334,0.2962965
0.997022,0.07711779,0.87368554,-0.48649108,-0.041112494,0.2976502
0.99177396,0.12800154,0.98589724,-0.16735168,0.23382053,-0.16697007
0.9916556,0.12891552,0.92227733,-0.38652885,-0.11715177,-0.2490887
0.9981837,0.06024337,0.87340033,-0.48700294,0.12343957,-0.19473293
0.9979252,0.06438357,0.8693748,-0.49415323,-0.11178923,0.2505167
0.98705405,0.16038804,0.9550481,-0.2964509,-0.037674274,-0.31405887
0.9877275,0.15618692,0.9500968,-0.3119553,-0.12243558,-0.19362867
0.9977463,0.067099534,0.9989026,-0.046835653,0.15864165,-0.103451364
0.99443936,0.105310485,0.87831956,-0.478074,-0.06402285,-0.24458137
0.99829185,0.058424402,0.99772453,-0.0674219,-0.17487681,0.0151347825
0.9897245,0.14298747,0.9703514,-0.24169841,-0.0856954,0.49187645
0.99773014,0.067339554,0.8731588,-0.48743588,0.13360658,-0.09716328
0.99965274,0.026351966,0.9328124,-0.3603624,0.25849134,-0.12108517
0.9986411,0.052114744,0.9969723,-0.077757366,-0.17372039,-0.030549545
0.9935739,0.11318513,0.98727834,-0.15900156,0.12538655,-0.4911438
0.999317,-0.036953613,0.94814926,-0.31782532,-0.12715463,0.09329231
0.9999715,0.007551284,0.9430696,-0.3325956,-0.24220675,0.100009166
0.99088085,0.13474087,0.9421193,-0.3352778,-0.029227179,0.4992452
0.9999715,-0.0075473897,0.95167273,-0.30711395,0.05331563,-0.42734477
0.99107057,0.13333832,0.93617743,-0.35152775,0.18191598,0.13599366
0.99593353,0.09009077,0.9062671,-0.4227055,0.22548251,0.0022705155
0.99883324,-0.04829184,0.95109844,-0.308888,0.04778648,-0.11238335
0.99862915,0.0523438,0.9116626,-0.41093963,-0.23579153,0.098946564
